X:3240
T:Kerry Jig, The
O:england
R:single jig
S:Leo Rowsome
N:The same performance is transcribed in Ceol Rince na hEireann vol. III, but it differs from this.  Probably my error. (Alan--I haven't had a chance to check this against the original yet.  Might well be wrong.)
E:12
I:speed 470
M:12/8
K:ADor
G|.A.BA A2F G2E A2F|G2E ~E3 ~A3 A2c|B2G ~G3 Bcd B2G|c3 B2c A4z::\
d|.e.fe e2d e2f g3|~G3 G2F G3 E3|~A3 A2c B2G ~G3|B2d B2G c4z:|


